styles/3/Numix/64/places/green-folder-recent.svg

<?xml version="1.0" encoding="UTF-8" standalone="no"?>
<!-- Created with Inkscape (http://www.inkscape.org/) -->

<svg
   xmlns:dc="http://purl.org/dc/elements/1.1/"
   xmlns:cc="http://creativecommons.org/ns#"
   xmlns:rdf="http://www.w3.org/1999/02/22-rdf-syntax-ns#"
   xmlns:svg="http://www.w3.org/2000/svg"
   xmlns="http://www.w3.org/2000/svg"
   xmlns:sodipodi="http://sodipodi.sourceforge.net/DTD/sodipodi-0.dtd"
   xmlns:inkscape="http://www.inkscape.org/namespaces/inkscape"
   width="64"
   height="64"
   id="svg2"
   version="1.1"
   inkscape:version="0.91 r"
   sodipodi:docname="green-folder-recent.svg"
   inkscape:export-filename="/media/Data/Main/Visuals/Icons/Numix/Desktop/repos/numix-wiki/Gjorgi/Numix-folders/48/New/folder-144.png"
   inkscape:export-xdpi="270"
   inkscape:export-ydpi="270">
  <defs
     id="defs4" />
  <sodipodi:namedview
     id="base"
     pagecolor="#ffffff"
     bordercolor="#666666"
     borderopacity="1.0"
     inkscape:pageopacity="0.0"
     inkscape:pageshadow="2"
     inkscape:zoom="4.92"
     inkscape:cx="-14.484919"
     inkscape:cy="11.234797"
     inkscape:document-units="px"
     inkscape:current-layer="layer1"
     showgrid="true"
     inkscape:window-width="1280"
     inkscape:window-height="998"
     inkscape:window-x="0"
     inkscape:window-y="0"
     inkscape:window-maximized="1"
     showguides="true"
     inkscape:guide-bbox="true">
    <inkscape:grid
       type="xygrid"
       id="grid2985"
       empspacing="5"
       visible="true"
       enabled="true"
       snapvisiblegridlinesonly="true" />
  </sodipodi:namedview>
  <metadata
     id="metadata7">
    <rdf:RDF>
      <cc:Work
         rdf:about="">
        <dc:format>image/svg+xml</dc:format>
        <dc:type
           rdf:resource="http://purl.org/dc/dcmitype/StillImage" />
        <dc:title />
      </cc:Work>
    </rdf:RDF>
  </metadata>
  <g
     inkscape:label="Layer 1"
     inkscape:groupmode="layer"
     id="layer1"
     transform="translate(0,-988.3622)">
    <rect
       style="fill:#388e3c;fill-opacity:1;stroke:none"
       id="rect3757"
       width="52"
       height="20"
       x="6"
       y="1000.3622" />
    <path
       style="fill:#388e3c;fill-opacity:1;stroke:none"
       d="m 12,1000.3622 c 0,-2 0,-4 2.909091,-4 l 10.181819,0 c 2.90909,0 2.90909,2 2.90909,4 l 0,2 -16,0 z"
       id="path3759"
       inkscape:connector-curvature="0"
       sodipodi:nodetypes="ccccccc" />
    <path
       style="fill:#95989f;fill-opacity:1;stroke:none"
       d="m 10,1004.3622 44,0 0,9.9354 -44,0 z"
       id="path3765"
       inkscape:connector-curvature="0" />
    <rect
       y="1002.3622"
       x="14"
       height="25.999954"
       width="38"
       id="rect3763"
       style="fill:#d8d8da;fill-opacity:1;stroke:none" />
    <rect
       style="fill:#f9f9f9;fill-opacity:1;stroke:none"
       id="rect3761"
       width="38"
       height="25.999954"
       x="12"
       y="1006.3622" />
    <path
       style="fill:#66bb6a;fill-opacity:1;stroke:none"
       d="m 2,1008.3622 60,0 -4.285714,36 -51.4285718,0 z"
       id="path2987"
       inkscape:connector-curvature="0"
       sodipodi:nodetypes="ccccc" />
    <path
       style="opacity:0.4;fill:#103612;fill-opacity:1;stroke:none"
       d="M 18 24 L 18 34 L 28 34 L 24.21875 30.21875 C 26.211432 28.22875 28.962499 27 32 27 C 38.075132 27 43 31.9249 43 38 C 43 44.0751 38.075132 49 32 49 C 25.924868 49 21 44.0751 21 38 C 21 37.6624 21.03272 37.3299 21.0625 37 L 18.03125 37 C 18.00797 37.3301 18 37.664 18 38 C 18 45.732 24.268014 52 32 52 C 39.731986 52 46 45.732 46 38 C 46 30.268 39.731986 24 32 24 C 28.128254 24 24.626811 25.554903 22.09375 28.09375 L 18 24 z M 31.8125 28.9375 A 2.0002 2.0002 0 0 0 31.5625 29 A 2.0002 2.0002 0 0 0 30 31 L 30 38.375 A 2.0002 2.0002 0 0 0 30 38.5625 A 2.0002 2.0002 0 0 0 30.25 40.0625 A 2.0002 2.0002 0 0 0 30.3125 40.125 A 2.0002 2.0002 0 0 0 30.375 40.25 A 2.0002 2.0002 0 0 0 30.4375 40.3125 A 2.0002 2.0002 0 0 0 30.5 40.375 A 2.0002 2.0002 0 0 0 30.5625 40.4375 A 2.0002 2.0002 0 0 0 30.625 40.5 A 2.0002 2.0002 0 0 0 30.75 40.5625 A 2.0002 2.0002 0 0 0 30.8125 40.625 A 2.0002 2.0002 0 0 0 30.875 40.6875 A 2.0002 2.0002 0 0 0 31 40.75 A 2.0002 2.0002 0 0 0 31.25 40.875 L 36.1875 43.75 A 2.0155644 2.0155644 0 0 0 38.1875 40.25 L 34 37.8125 L 34 31 A 2.0002 2.0002 0 0 0 31.8125 28.9375 z "
       transform="translate(0,988.3622)"
       id="path4017" />
  </g>
</svg>

<!-- Created with Inkscape (http://www.inkscape.org/) -->
<svg xmlns="http://www.w3.org/2000/svg" viewBox="0 0 64 64">
 <g transform="translate(0,-988.3622)">
  <rect width="52" height="20" x="6" y="1000.36" style="fill:#388e3c;fill-opacity:1;stroke:none"/>
  <path d="m 12 1000.36 c 0 -2 0 -4 2.909 -4 l 10.182 0 c 2.909 0 2.909 2 2.909 4 l 0 2 -16 0 z" style="fill:#388e3c;fill-opacity:1;stroke:none"/>
  <path d="m 10 1004.36 44 0 0 9.935 -44 0 z" style="fill:#95989f;fill-opacity:1;stroke:none"/>
  <rect y="1002.36" x="14" height="26" width="38" style="fill:#d8d8da;fill-opacity:1;stroke:none"/>
  <rect width="38" height="26" x="12" y="1006.36" style="fill:#f9f9f9;fill-opacity:1;stroke:none"/>
  <path d="m 2 1008.36 60 0 -4.286 36 -51.43 0 z" style="fill:#66bb6a;fill-opacity:1;stroke:none"/>
  <path d="m 18 24 l 0 10 l 10 0 l -3.781 -3.781 c 1.993 -1.99 4.744 -3.219 7.781 -3.219 c 6.075 0 11 4.925 11 11 c 0 6.075 -4.925 11 -11 11 c -6.075 0 -11 -4.925 -11 -11 c 0 -0.338 0.033 -0.67 0.063 -1 l -3.03 0 c -0.023 0.33 -0.031 0.664 -0.031 1 c 0 7.732 6.268 14 14 14 c 7.732 0 14 -6.268 14 -14 c 0 -7.732 -6.268 -14 -14 -14 c -3.872 0 -7.373 1.555 -9.906 4.094 l -4.094 -4.094 z m 13.813 4.938 a 2 2 0 0 0 -0.25 0.063 a 2 2 0 0 0 -1.563 2 l 0 7.375 a 2 2 0 0 0 0 0.188 a 2 2 0 0 0 0.25 1.5 a 2 2 0 0 0 0.063 0.063 a 2 2 0 0 0 0.063 0.125 a 2 2 0 0 0 0.063 0.063 a 2 2 0 0 0 0.063 0.063 a 2 2 0 0 0 0.063 0.063 a 2 2 0 0 0 0.063 0.063 a 2 2 0 0 0 0.125 0.063 a 2 2 0 0 0 0.063 0.063 a 2 2 0 0 0 0.063 0.063 a 2 2 0 0 0 0.125 0.063 a 2 2 0 0 0 0.25 0.125 l 4.938 2.875 a 2.02 2.02 0 0 0 2 -3.5 l -4.188 -2.438 l 0 -6.813 a 2 2 0 0 0 -2.188 -2.063 z" transform="translate(0,988.3622)" style="fill:#103612;opacity:0.4;fill-opacity:1;stroke:none"/>
 </g>
</svg>
